svgs/icons/sm/chauffeur.svg

<svg xmlns="http://www.w3.org/2000/svg" viewBox="0 0 16 16" enable-background="new 0 0 16 16"><g fill="#34363D"><path d="M3 14c0 .6.4 1 1 1h1c.6 0 1-.4 1-1v-1h-3v1zM12.1 4c.8 0 1.5-.7 1.5-1.5s-.7-1.5-1.5-1.5-1.5.7-1.5 1.5.6 1.5 1.5 1.5zM12 6l1-1h-2zM14.5 5.4l-2.5 3.2-2.3-3-.1-.1c-.2 0-.4.1-.5.2l-2.5 2.8c-.2-.1-.3-.3-.6-.4l-1-3.3c-.2-1-1.1-1.8-2.2-1.8h-1.8v1h1.8c.6 0 1.2.4 1.3 1l.9 3h-4v4h6v-1.7l3-2.8.4 2.9.1.5.5 4.1h2l.6-4.6h.4c.2 0 .4-.2.4-.4l.6-3.2c.1-.5-.1-1-.5-1.4zm-10.5 5.6c-.6 0-1-.4-1-1s.4-1 1-1 1 .4 1 1-.4 1-1 1z"/></g></svg>

<svg xmlns="http://www.w3.org/2000/svg" viewBox="0 0 16 16"><path d="M3 14c0 .6.4 1 1 1h1c.6 0 1-.4 1-1v-1H3v1zm9.1-10c.8 0 1.5-.7 1.5-1.5S12.9 1 12.1 1s-1.5.7-1.5 1.5.6 1.5 1.5 1.5zM12 6l1-1h-2zm2.5-.6L12 8.6l-2.3-3-.1-.1c-.2 0-.4.1-.5.2L6.6 8.5c-.2-.1-.3-.3-.6-.4L5 4.8C4.8 3.8 3.9 3 2.8 3H1v1h1.8c.6 0 1.2.4 1.3 1L5 8H1v4h6v-1.7l3-2.8.4 2.9.1.5.5 4.1h2l.6-4.6h.4c.2 0 .4-.2.4-.4l.6-3.2c.1-.5-.1-1-.5-1.4zM4 11c-.6 0-1-.4-1-1s.4-1 1-1 1 .4 1 1-.4 1-1 1z" fill="#34363D"/></svg>
